frontend/public/svg/currency/pound.svg

<svg width="163" height="160" viewBox="0 0 163 160" fill="none" xmlns="http://www.w3.org/2000/svg">
<g clip-path="url(#clip0)">
<path d="M68.4675 82.0132C73.7182 81.5944 78.7359 81.1652 83.7602 80.8134C85.0926 80.7136 86.4321 80.7543 87.756 80.9355C88.4944 81.0064 89.1848 81.3319 89.7099 81.8557C90.2343 82.3794 90.5612 83.0692 90.634 83.807C90.9057 85.5659 90.2402 87.1313 88.6388 87.6859C86.4341 88.4788 84.133 88.9684 81.7971 89.1423C77.8899 89.3734 73.9591 89.208 69.6817 89.208C69.3175 97.1917 67.0144 104.13 62.8466 111.098C72.802 111.653 82.1541 112.398 91.5174 112.574C94.7808 112.636 98.0972 111.399 101.341 110.565C104.895 109.65 106.671 109.957 107.518 111.975C108.427 114.141 107.268 116.044 104.034 117.593C99.8149 119.509 95.1851 120.341 90.5631 120.015C83.5127 119.687 76.4683 118.972 69.4573 118.124C64.7613 117.424 59.9672 118.357 55.8755 120.765C52.3628 122.837 50.4735 121.759 50.7518 117.66C51.0001 115.463 51.7287 113.349 52.8861 111.465C56.1317 105.828 59.7692 100.4 61.1423 93.8929C61.3109 93.1283 61.4393 92.3558 61.5269 91.5773C61.526 91.0352 61.482 90.4944 61.3955 89.9588C59.1127 89.9588 56.8935 89.9798 54.675 89.9503C53.5545 89.9975 52.4325 89.9234 51.328 89.7291C49.5276 89.3012 48.255 88.1355 48.3745 86.1711C48.4887 84.2565 49.6821 83.1276 51.6459 82.9491C54.4327 82.6958 57.2206 82.4588 60.4308 82.1779C59.6012 79.2297 58.9013 76.452 58.0369 73.7263C55.6911 66.3261 57.1181 59.4367 61.232 53.1575C68.503 42.0654 85.6111 34.925 99.8155 45.6896C101.802 47.3245 103.574 49.2046 105.088 51.285C105.818 52.2712 106.173 53.4858 106.089 54.7103C106.015 55.2899 105.818 55.847 105.511 56.3436C105.203 56.8402 104.793 57.2647 104.306 57.5884C103.437 58.0078 101.853 57.7308 100.972 57.1598C99.5891 56.2646 98.6092 54.7759 97.3267 53.6923C84.4743 42.8286 68.0107 51.4838 65.1662 63.8053C64.8191 65.2214 64.6883 66.6818 64.7778 68.1369C64.9562 69.9234 65.3044 71.689 65.8174 73.4092C66.5878 76.1928 67.5093 78.9356 68.4675 82.0132Z" fill="black"/>
<path d="M161.948 73.2751C160.102 57.0687 153.596 41.7454 143.22 29.1604C134.668 18.6662 125.469 11.1873 115.096 6.30412C107.002 2.40449 98.1354 0.37386 89.1507 0.362305C86.3908 0.366804 83.6336 0.546939 80.896 0.901749C69.5052 2.37917 57.9591 5.68388 44.5718 11.3087C26.4634 18.9222 13.8551 32.0063 7.1073 50.1888C2.3739 62.6746 0.549481 76.0757 1.77264 89.3724C3.19558 104.311 6.79061 115.888 13.083 125.799C22.1739 140.107 33.626 149.526 48.0989 154.591C56.8728 157.666 66.5307 159.21 78.4813 159.453C85.5159 159.453 92.0642 158.604 98.3972 157.781L99.5977 157.626C113.423 155.838 125.165 150.848 135.499 142.384C145.216 134.569 152.571 124.209 156.744 112.459C161.692 98.4246 163.392 85.6037 161.948 73.2751ZM145.627 117.835C137.804 133.677 124.647 144.07 106.504 148.723C104.326 149.283 102.073 149.687 99.6928 150.113C98.5114 150.321 97.2775 150.544 95.9832 150.793C90.3387 151.643 82.7259 151.772 78.5292 151.772C76.6613 151.772 75.4668 151.744 75.4333 151.744C64.4125 151.613 54.9309 149.741 46.4536 146.026C35.1567 141.075 26.1263 132.719 18.856 120.485C14.4651 113.107 11.6798 104.372 10.0948 93.002C8.0606 78.5383 9.83934 63.7943 15.2545 50.2295C20.9534 35.7763 31.2035 24.8108 45.7178 17.641C49.0697 15.9824 62.6935 11.9893 66.2745 11.2614C71.3174 10.2552 76.4296 9.63965 81.5668 9.42037C101.888 8.93468 109.913 12.2052 122.325 21.6814C135.321 31.602 144.48 44.0717 149.552 58.7409C156.439 78.7247 155.123 98.6064 145.627 117.835Z" fill="black"/>
</g>
<defs>
<clipPath id="clip0">
<rect width="162.115" height="159.49" fill="white" transform="translate(0.844482 0.13501)"/>
</clipPath>
</defs>
</svg>

<svg xmlns="http://www.w3.org/2000/svg" width="163" height="160" fill="none" viewBox="0 0 163 160"><g fill="#000" clip-path="url(#a)"><path d="M68.468 82.013c5.25-.419 10.268-.848 15.292-1.2 1.333-.1 2.672-.059 3.996.123a3.2 3.2 0 0 1 2.878 2.871c.272 1.759-.394 3.324-1.995 3.879a26 26 0 0 1-6.842 1.456c-3.907.231-7.838.066-12.115.066-.365 7.984-2.668 14.922-6.835 21.89 9.955.555 19.307 1.3 28.67 1.476 3.264.062 6.58-1.175 9.824-2.009 3.554-.915 5.33-.608 6.177 1.41.909 2.166-.25 4.069-3.484 5.618a27.84 27.84 0 0 1-13.47 2.422c-7.051-.328-14.096-1.043-21.107-1.891-4.696-.7-9.49.233-13.581 2.641-3.513 2.072-5.402.994-5.124-3.105a15.1 15.1 0 0 1 2.134-6.195c3.246-5.637 6.883-11.065 8.256-17.572q.253-1.148.385-2.316-.002-.814-.132-1.618c-2.282 0-4.501.02-6.72-.009a15.5 15.5 0 0 1-3.347-.22c-1.8-.429-3.073-1.595-2.954-3.559.115-1.915 1.308-3.043 3.272-3.222 2.787-.253 5.575-.49 8.785-.771-.83-2.948-1.53-5.726-2.394-8.452-2.346-7.4-.919-14.29 3.195-20.568 7.271-11.093 24.38-18.233 38.584-7.468a30.5 30.5 0 0 1 5.272 5.595c.73.986 1.085 2.2 1.001 3.425a4.07 4.07 0 0 1-1.783 2.878c-.869.42-2.453.143-3.334-.428-1.383-.895-2.363-2.384-3.645-3.468-12.853-10.863-29.316-2.208-32.16 10.113a14.5 14.5 0 0 0-.39 4.332 28.3 28.3 0 0 0 1.04 5.272c.77 2.784 1.692 5.527 2.65 8.604"/><path d="M161.948 73.275A84.36 84.36 0 0 0 143.22 29.16c-8.552-10.494-17.751-17.973-28.124-22.856A59.95 59.95 0 0 0 89.151.362c-2.76.005-5.517.185-8.255.54-11.39 1.477-22.937 4.782-36.324 10.407-18.109 7.613-30.717 20.697-37.465 38.88a87.84 87.84 0 0 0-5.334 39.183c1.423 14.939 5.018 26.516 11.31 36.427 9.09 14.308 20.543 23.727 35.016 28.792 8.774 3.075 18.432 4.619 30.382 4.862 7.035 0 13.583-.849 19.916-1.672l1.2-.155c13.826-1.788 25.568-6.778 35.902-15.242a67.3 67.3 0 0 0 21.245-29.925c4.948-14.034 6.648-26.855 5.204-39.184m-16.321 44.56c-7.823 15.842-20.98 26.235-39.123 30.888-2.178.56-4.431.964-6.811 1.39-1.182.208-2.415.431-3.71.68-5.644.85-13.257.979-17.454.979-1.868 0-3.062-.028-3.096-.028-11.02-.131-20.502-2.003-28.98-5.718-11.296-4.951-20.327-13.307-27.597-25.541-4.39-7.378-7.176-16.113-8.761-27.483a83.86 83.86 0 0 1 5.16-42.772c5.698-14.454 15.948-25.42 30.463-32.589 3.352-1.659 16.975-5.652 20.557-6.38a100 100 0 0 1 15.292-1.84c20.321-.486 28.346 2.784 40.758 12.26 12.996 9.921 22.155 22.39 27.227 37.06 6.887 19.984 5.571 39.865-3.925 59.094"/></g><defs><clipPath id="a"><path fill="#fff" d="M.844.135H162.96v159.49H.844z"/></clipPath></defs></svg>
